Numix/16/actions/gtk-preferences.svg

<?xml version="1.0" encoding="UTF-8" standalone="no"?>
<svg
   xmlns:dc="http://purl.org/dc/elements/1.1/"
   xmlns:cc="http://creativecommons.org/ns#"
   xmlns:rdf="http://www.w3.org/1999/02/22-rdf-syntax-ns#"
   xmlns:svg="http://www.w3.org/2000/svg"
   xmlns="http://www.w3.org/2000/svg"
   xmlns:sodipodi="http://sodipodi.sourceforge.net/DTD/sodipodi-0.dtd"
   xmlns:inkscape="http://www.inkscape.org/namespaces/inkscape"
   width="16"
   height="16"
   viewBox="0 0 16 16"
   id="svg2"
   version="1.1"
   inkscape:version="0.48.4 r9939"
   sodipodi:docname="gtk-preferences.svg">
  <metadata
     id="metadata22">
    <rdf:RDF>
      <cc:Work
         rdf:about="">
        <dc:format>image/svg+xml</dc:format>
        <dc:type
           rdf:resource="http://purl.org/dc/dcmitype/StillImage" />
      </cc:Work>
    </rdf:RDF>
  </metadata>
  <defs
     id="defs20" />
  <sodipodi:namedview
     pagecolor="#ffffff"
     bordercolor="#666666"
     borderopacity="1"
     objecttolerance="10"
     gridtolerance="10"
     guidetolerance="10"
     inkscape:pageopacity="0"
     inkscape:pageshadow="2"
     inkscape:window-width="1366"
     inkscape:window-height="742"
     id="namedview18"
     showgrid="true"
     inkscape:zoom="19.46"
     inkscape:cx="8.136779"
     inkscape:cy="14.795991"
     inkscape:window-x="0"
     inkscape:window-y="26"
     inkscape:window-maximized="1"
     inkscape:current-layer="svg2">
    <inkscape:grid
       type="xygrid"
       id="grid2999" />
  </sodipodi:namedview>
  <g
     style="fill:#aaaaaa"
     id="g4"
     transform="matrix(1.1247803,0,0,1.1145345,23.001758,-0.91627575)">
    <path
       d="m 14.667969,2.953125 -8.886719,0 0,0.789063 8.886719,0 z"
       id="path6"
       inkscape:connector-curvature="0" />
    <path
       d="m 5.410156,4.53125 c -0.613281,0 -1.113281,-0.527344 -1.113281,-1.183594 0,-0.652344 0.5,-1.179687 1.113281,-1.179687 0.613282,0 1.109375,0.527343 1.109375,1.179687 0,0.65625 -0.496093,1.183594 -1.109375,1.183594 z"
       id="path8"
       inkscape:connector-curvature="0" />
    <path
       d="m 1.332031,8.394531 11.109375,0 0,-0.789062 -11.109375,0 z"
       id="path10"
       inkscape:connector-curvature="0" />
    <path
       d="m 12.8125,6.816406 c 0.613281,0 1.109375,0.53125 1.109375,1.183594 0,0.652344 -0.496094,1.183594 -1.109375,1.183594 -0.613281,0 -1.109375,-0.53125 -1.109375,-1.183594 0,-0.652344 0.496094,-1.183594 1.109375,-1.183594 z"
       id="path12"
       inkscape:connector-curvature="0" />
    <path
       d="m 14.667969,12.257812 -8.148438,0 0,0.789063 8.148438,0 z"
       id="path14"
       inkscape:connector-curvature="0" />
    <path
       d="m 6.148438,13.832031 c -0.613282,0 -1.109376,-0.527343 -1.109376,-1.179687 0,-0.65625 0.496094,-1.183594 1.109376,-1.183594 0.613281,0 1.113281,0.527344 1.113281,1.183594 0,0.652344 -0.5,1.179687 -1.113281,1.179687 z"
       id="path16"
       inkscape:connector-curvature="0" />
  </g>
  <g
     id="g3003"
     style="fill:#9f50c0;fill-opacity:1">
    <path
       id="path3005"
       d="m 7.25,0 0,16 1.5,0 0,-16 z"
       xml:space="default"
       inkscape:connector-curvature="0"
       style="fill:#9f50c0;fill-opacity:1" />
    <path
       id="path3007"
       d="M 10.5,12.5 C 10.5,13.328428 9.380712,14 8,14 6.6192883,14 5.5,13.328428 5.5,12.5 5.5,11.671574 6.6192883,11 8,11 c 1.380712,0 2.5,0.671574 2.5,1.5 z"
       xml:space="default"
       inkscape:connector-curvature="0"
       style="fill:#9f50c0;fill-opacity:1" />
    <path
       id="path3009"
       d="m 3.2500001,15 0,-14 -1.5,0 0,14 z"
       xml:space="default"
       inkscape:connector-curvature="0"
       style="fill:#9f50c0;fill-opacity:1" />
    <path
       id="path3011"
       d="M 5.0000001,5.5 C 5.0000001,6.328428 3.8807122,7 2.5000002,7 1.1192883,7 0,6.328428 0,5.5 0,4.671574 1.1192883,4 2.5000002,4 3.8807122,4 5.0000001,4.671574 5.0000001,5.5 z"
       xml:space="default"
       inkscape:connector-curvature="0"
       style="fill:#9f50c0;fill-opacity:1" />
    <path
       id="path3013"
       d="m 14.25,15 0,-14 -1.5,0 0,14 z"
       xml:space="default"
       inkscape:connector-curvature="0"
       style="fill:#9f50c0;fill-opacity:1" />
    <path
       id="path3015"
       d="M 16,5.5 C 16,6.3284278 14.880712,7 13.5,7 12.119288,7 11,6.3284278 11,5.5 11,4.671574 12.119288,4 13.5,4 14.880712,4 16,4.671574 16,5.5 z"
       xml:space="default"
       inkscape:connector-curvature="0"
       style="fill:#9f50c0;fill-opacity:1" />
  </g>
</svg>

<svg width="16" xmlns="http://www.w3.org/2000/svg" height="16" viewBox="0 0 16 16" xmlns:xlink="http://www.w3.org/1999/xlink">
<g style="fill:#aaa">
<path d="M 14.667969 2.953125 L 5.78125 2.953125 L 5.78125 3.742188 L 14.667969 3.742188 Z "/>
<path d="M 5.410156 4.53125 C 4.796875 4.53125 4.296875 4.003906 4.296875 3.347656 C 4.296875 2.695312 4.796875 2.167969 5.410156 2.167969 C 6.023438 2.167969 6.519531 2.695312 6.519531 3.347656 C 6.519531 4.003906 6.023438 4.53125 5.410156 4.53125 Z "/>
<path d="M 1.332031 8.394531 L 12.441406 8.394531 L 12.441406 7.605469 L 1.332031 7.605469 Z "/>
<path d="M 12.8125 6.816406 C 13.425781 6.816406 13.921875 7.347656 13.921875 8 C 13.921875 8.652344 13.425781 9.183594 12.8125 9.183594 C 12.199219 9.183594 11.703125 8.652344 11.703125 8 C 11.703125 7.347656 12.199219 6.816406 12.8125 6.816406 Z "/>
<path d="M 14.667969 12.257812 L 6.519531 12.257812 L 6.519531 13.046875 L 14.667969 13.046875 Z "/>
<path d="M 6.148438 13.832031 C 5.535156 13.832031 5.039062 13.304688 5.039062 12.652344 C 5.039062 11.996094 5.535156 11.46875 6.148438 11.46875 C 6.761719 11.46875 7.261719 11.996094 7.261719 12.652344 C 7.261719 13.304688 6.761719 13.832031 6.148438 13.832031 Z "/>
</g>
</svg>
